svgs/regular/user-hair.svg

<svg xmlns="http://www.w3.org/2000/svg" viewBox="0 0 448 512"><!--! Font Awesome Pro 6.4.2 by @fontawesome - https://fontawesome.com License - https://fontawesome.com/license (Commercial License) Copyright 2023 Fonticons, Inc. --><path d="M304 128c0-11.4-2.4-22.2-6.7-32H296c-20.5 0-38.7-9.6-50.4-24.5C231.9 95.7 205.8 112 176 112H145.6c-1 5.2-1.6 10.5-1.6 16v16c0 44.2 35.8 80 80 80s80-35.8 80-80V128zM96 128C96 57.3 153.3 0 224 0s128 57.3 128 128v16c0 70.7-57.3 128-128 128s-128-57.3-128-128V128zM49.6 464H398.4c-9.3-54.5-56.8-96-113.9-96H163.6c-57.2 0-104.6 41.5-113.9 96zM0 483.6C0 393.2 73.2 320 163.6 320H284.4C374.8 320 448 393.2 448 483.6c0 15.7-12.7 28.4-28.4 28.4H28.4C12.7 512 0 499.3 0 483.6z"/></svg>

<svg xmlns="http://www.w3.org/2000/svg" viewBox="0 0 448 512"><!--! Font Awesome Pro 6.1.1 by @fontawesome - https://fontawesome.com License - https://fontawesome.com/license (Commercial License) Copyright 2022 Fonticons, Inc. --><path d="M96 128C96 57.31 153.3 0 224 0C294.7 0 352 57.31 352 128V144C352 214.7 294.7 272 224 272C153.3 272 96 214.7 96 144V128zM297.3 96H296C275.5 96 257.3 86.4 245.6 71.46C231.9 95.67 205.8 112 176 112H145.6C144.6 117.2 144 122.5 144 128V144C144 188.2 179.8 224 224 224C268.2 224 304 188.2 304 144V128C304 116.6 301.6 105.8 297.3 96zM0 483.6C0 393.2 73.23 320 163.6 320H284.4C374.8 320 448 393.2 448 483.6C448 499.3 435.3 512 419.6 512H28.44C12.74 512 0 499.3 0 483.6zM398.4 464C389.1 409.5 341.6 368 284.4 368H163.6C106.4 368 58.94 409.5 49.65 464H398.4z"/></svg>
